assets/images/tools/template0.svg

<svg fill="none" height="64" viewBox="0 0 200 64" width="200" xmlns="http://www.w3.org/2000/svg"><path d="m0 0h200v64h-200z" fill="#fff"/><g transform="translate(30 20)"><path d="m0 0h32v8h-12v32h-8v-32h-12z" fill="#e32950"/><circle cx="95" cy="20" fill="#e32950" r="20"/><circle cx="95" cy="20" fill="#fff" r="12"/><path d="m84 18c0-9.94 8.06-18 18-18s18 8.06 18 18-8.06 18-18 18-18-8.06-18-18zm18 10c5.52 0 10-4.48 10-10s-4.48-10-10-10-10 4.48-10 10 4.48 10 10 10z" fill="#e32950"/></g></svg>

<?xml version="1.0" encoding="UTF-8" standalone="no"?>
<svg width="200" height="64" viewBox="0 0 200 64" fill="none" xmlns="http://www.w3.org/2000/svg">
  <!-- 白色背景 -->
  <rect width="200" height="64" fill="white"/>
  
  <!-- Template0 Logo -->
  <g transform="translate(30, 20)">
    <!-- T字母 -->
    <path d="M0 0H32V8H20V40H12V8H0V0Z" fill="#E32950"/>
    
    <!-- 右侧圆形 -->
    <circle cx="95" cy="20" r="20" fill="#E32950"/>
    <circle cx="95" cy="20" r="12" fill="white"/>
    
    <!-- 0字母 -->
    <path d="M84 18C84 8.06 92.06 0 102 0C111.94 0 120 8.06 120 18C120 27.94 111.94 36 102 36C92.06 36 84 27.94 84 18ZM102 28C107.52 28 112 23.52 112 18C112 12.48 107.52 8 102 8C96.48 8 92 12.48 92 18C92 23.52 96.48 28 102 28Z" fill="#E32950"/>
  </g>
</svg>
